X:1412
T:Lamb Skinnet
P:Lamb Skinnet
C:Traditional?
R:Jig (8x32)
B:RSCDS 14-12
Z:Anselm Lingnau <anselm@strathspey.org>
M:6/8
L:1/8
K:A
|:e|"A"Ace ecA|"D"d2f f2a|"A"Ace ecA|"E7"G2B B2c|
    "A"Ace ecA|"D"d2f f2a|"E"gfe "B7"fe^d|"E7"e3 E2:|
|:f/g/|"A"aec aec|"D"d2f f2a|"A"ecA ecA|"E7"G2B Bcd|
    "A"ecA ecA|"D"d2f fga|"A"ecA "E7"eBG|"A"A3 A2:|
